X: 440
T: Buck Mountain
B: jims roots
M:4/4
L:1/8
R: reel
Q: 1/4=100
K:D
V:1 
dB|"D"AFFF F2  dc|"G"BGGG G2 cd|"A"efed cABc|"D"dcde fedB|
"D"AFFF F2 dc|"G"BGGG G2 cd|"A"efed cABc|"D"d6:|
"D"f6 fg|fedB ABcd|f6 ef|"G"gfed Bdef|"A"g6 fg|a6 ab|
a2g2f2e2|"D"d6:|!
% abcbook-tune_id 6298c24523a8289935a56e30


% abcbook-boost 0
% abcbook-tablature 
% abcbook-transpose 
% abcbook-lastupdated 1654178373536
% abcbook-soundfonts 
% abcbook-repeats 1


